X:136
T:Walk Home, The
R:jig
C:Dan Compton
Z:Transcribed by Dave Marshall
M:6/8
K:D
|: A,2D DEF | E2D DEF | G2B FGF | EDB, B,CD |
A,2D DEF | E2D DEF | GFE FDB, |1 A,3 A,2B, :|2 A,3 DFG
|: A3 AFE | D3 DEF | GAB AFD | FEE EFG |
A3 AFE | D3 DEF | GFE FDB, |1 A,3 DFG :|2 A,3 A,2B, |
